X: 1264
T: Kordon Zeybeği
C: (Anonim)
O: Turkey
F: http://compmusic.upf.edu/node/140
N: rast--zeybek--agiraksak--kordon_zeybegi--
N: makam= rast
N: form= zeybek
N: usul= agiraksak = 9/4
M: 9/4
L: 1/16
K: C _1/4B ^f  
Q: 1/4=114
%%MIDI tuningsystem comma53
G4 B4 d4 c2B2 A2B2 c3e d2c2 B3A G4  | \
w:   | 
G4 B4 d4 c3B A2B2 c3e d2c2 B3A G4  | 
w:   | 
d2e2 =f2e2 d2c2 B4 A2B2 c3e d2c2 B3A G4  | \
w:   | 
d2e2 =f2e2 d2c2 B4 A2B2 c3e d2c2 B3A G4  | 
w:   | 
A2B2 c2B2 c4 c3B A2B2 c3e d2c2 B3A G4  | \
w:   | 
A2B2 c2B2 c4 c3B A2B2 c3e d2c2 B3A G4  | 
w:   | 
F2G2 A2G2 A4 A3G A2B2 A2G2 F2E2 D4 z4  | \
w:   | 
E3D ^C2D2 E2F2 G3F G2B2 A3G A2c2 B3A G4  | 
w:   | 
B2c2 d2B2 c2A2 G3F E2F2 G2A2 B2A2 G4 z4  | \
w:   | 
G4 B4 d4 c2B2 A2B2 c3e d2c2 B3A G4  | 
w:   | 
G4 B4 d4 c3B A2B2 c3e d2c2 B3A G4  | \
w:   | 
d2e2 =f2e2 d2c2 B4 A2B2 c3e d2c2 B3A G4  | 
w:   | 
d2e2 =f2e2 d2c2 B4 A2B2 c3e d2c2 B3A G4  | \
w:   | 
A2B2 c2B2 c4 c3B A2B2 c3e d2c2 B3A G4  | 
w:   | 
A2B2 c2B2 c4 c3B A2B2 c3e d2c2 B3A G4  | \
w:   | 
F2G2 A2G2 A4 A3G A2B2 A2G2 F2E2 D4 z4  | 
w:   | 
E3D ^C2D2 E2F2 G3F G2B2 A3G A2c2 B3A G4  | \
w:   | 
B2c2 d2B2 c2A2 G3F E2F2 G2A2 B2A2 G4 z4  | 
w:   | 
d4 d4 d4 d3^c B4 c2d2 e2c2 d4 z4  | \
w:   | 
d4 d4 d4 d3^c B4 c2d2 e2c2 d4 z4  | 
w:   | 
^c2d2 e2f2 g2a2 g2=f2 f2e2 e2d2 d2c2 d3c B4  | \
w:   | 
^c2d2 e2f2 g2a2 g2=f2 f2e2 e2d2 d2c2 d3c B4  | 
w:   | 
e2=f2 f2e2 f4 f3e e2d2 e3d d2^c2 d3c B4  | \
w:   | 
e2=f2 f2e2 f4 f3e e2d2 e3d d2^c2 d3c B4  | 
w:   | 
A2B2 c2B2 c4 c3B A2B2 c3e d2c2 BcBA B4  | \
w:   | 
A2B2 c2B2 c4 c3B A2B2 c3e d2c2 B3A G4  | 
w:   | 
F2G2 A2G2 A4 A3G A2B2 A2G2 F2E2 D4 z4  | \
w:   | 
E3D ^C2D2 E2F2 G3F G2B2 A3G A2c2 B3A G4  | 
w:   | 
B2c2 d2B2 c2A2 G3F E2F2 G2A2 B2A2 G4 z4  | \
w:   | 
d4 d4 d4 d3^c B4 c2d2 e2c2 d4 z4  | 
w:   | 
d4 d4 d4 d3^c B4 c2d2 e2c2 d4 z4  | \
w:   | 
^c2d2 e2f2 g2a2 g2=f2 f2e2 e2d2 d2c2 d3c B4  | 
w:   | 
^c2d2 e2f2 g2a2 g2=f2 f2e2 e2d2 d2c2 d3c B4  | \
w:   | 
e2=f2 f2e2 f4 f3e e2d2 e3d d2^c2 d3c B4  | 
w:   | 
e2=f2 f2e2 f4 f3e e2d2 e3d d2^c2 d3c B4  | \
w:   | 
A2B2 c2B2 c4 c3B A2B2 c3e d2c2 BcBA B4  | 
w:   | 
A2B2 c2B2 c4 c3B A2B2 c3e d2c2 B3A G4  | \
w:   | 
F2G2 A2G2 A4 A3G A2B2 A2G2 F2E2 D4 z4  | 
w:   | 
E3D ^C2D2 E2F2 G3F G2B2 A3G A2c2 B3A G4  | \
w:   | 
B2c2 d2B2 c2A2 G3F E2F2 G2A2 B2A2 G4 z4  | 
w:   | 
G4 B4 d4 c2B2 A2B2 c3e d2c2 B3A G4  | \
w:   | 
G4 B4 d4 c3B A2B2 c3e d2c2 B3A G4  | 
w:   | 
d2e2 =f2e2 d2c2 B4 A2B2 c3e d2c2 B3A G4  | \
w:   | 
d2e2 =f2e2 d2c2 B4 A2B2 c3e d2c2 B3A G4  | 
w:   | 
A2B2 c2B2 c4 c3B A2B2 c3e d2c2 B3A G4  | \
w:   | 
A2B2 c2B2 c4 c3B A2B2 c3e d2c2 B3A G4  | 
w:   | 
F2G2 A2G2 A4 A3G A2B2 A2G2 F2E2 D4 z4  | \
w:   | 
E3D ^C2D2 E2F2 G3F G2B2 A3G A2c2 B3A G4  | 
w:   | 
B2c2 d2B2 c2A2 G3F E2F2 G2A2 B2A2 G4 z4  | |


